!!!!SEGMENT: pl-kk--kk-i-88--001-006_golabek-jakub--missa-1-osanna.krn
!!!cenid: 17xx:2571
!!!COM: Gołąbek, Jakub
!!!COM-rismID: pe30008748
!!!CDT: 1739-1789/03/30
!!!CNT: Polish
!!!OPR: Missa 1
!!!OTL: Osanna
!!!OMV: 006
!!!PDT:
!!!AGN: Sacred; Mass
!!!YEC: Copyright 2022 Narodowy Instytut Fryderyka Chopina (https://polishscores.org)
!!!YEM: License CC-BY-4.0 (https://creativecommons.org/licenses/by/4.0)
!!!SMS-siglum: PL-Kk
!!!SMS-shelfmark: Kk.I.88
!!!SMS-variant:
!!!SMS-altvar:
!!!SMS-shelfwork: 001-006 M
!!!NIFC-rismSourceID: 1001164072
!!!NIFC-rismChildID: 1001155167
!!!NIFC-islandoraID:
!!!URL-pdf-islandora: https://repozytorium.nifc.pl/islandora/object/pl-kk%3A3086/datastream/PDF/view
!!!URL-scan: https://polish.musicsources.pl/pl/lokalizacje/galeria/rekopisy/6148-missa/4 @EN{Scan on Polish Music Sources Website} @PL{Skany w portalu Dziedzictwo Muzyki Polskiej w otwartym dostępie}
!!!IIIF:
!!!ONB-nifc: UWAGA: C - f. 2r-3v; A - f. 10r-11v; T - f. 18r-19v; B - f. 26r-27v; B rip - f. 33r-34r. Proszę uwzględniać B rip. Części Mszy: 1. Kyrie, 2. Christe, 3. Et in terra, 4. Quoniam, 5. Sanctus, 6. Osanna, 7. Benedictus, 8. Agnus Dei, 9. Dona nobis
!!!OMD:
!!!AIN: 1 alto 2 bass 1 canto 1 tenor
!!!key: C
**kern	**text	**kern	**text	**kern	**text	**kern	**text	**dynam	**kern	**text	**dynam
*part5	*part5	*part4	*part4	*part3	*part3	*part2	*part2	*part2	*part1	*part1	*part1
*staff5	*staff5	*staff4	*staff4	*staff3	*staff3	*staff2	*staff2	*	*staff1	*staff1	*
*I"Baſso E ripieno	*	*I"Baſso	*	*I"Tenore	*	*I"Alto	*	*	*I"Canto	*	*
*I'B rip	*	*I'B	*	*I'T	*	*I'A	*	*	*I'S	*	*
*Ibass	*	*Ibass	*	*Itenor	*	*Ialto	*	*	*Icanto	*	*
*ICvox	*	*ICvox	*	*ICvox	*	*ICvox	*	*	*ICvox	*	*
*clefF4	*	*clefF4	*	*clefC4	*	*clefC3	*	*	*clefC1	*	*
*k[]	*	*k[]	*	*k[]	*	*k[]	*	*	*k[]	*	*
*C:	*	*C:	*	*C:	*	*C:	*	*	*C:	*	*
*M2/2	*	*M2/2	*	*M2/2	*	*M2/2	*	*	*M2/2	*	*
*met(c|)	*	*met(c|)	*	*met(c|)	*	*met(c|)	*	*	*met(c|)	*	*
*2\right	*	*2\right	*	*2\right	*	*2\right	*	*	*2\right	*	*
2G\	O-	2G\	O-	2B\	O-	2f\	O-	.	2dd\	O-	.
=1	=1	=1	=1	=1	=1	=1	=1	=1	=1	=1	=1
4C/	-san-	4C\	-san-	4G/	-san-	4e\	-san-	.	4cc\	-san-	.
4D/	-na	4D\	-na	4G/	-na	4e\	-na	.	4cc\	-na	.
4E\	in	4E\	in	4G/	in	4e\	in	.	4cc\	in	.
4F\	ex-	4F\	ex-	4G/	ex-	4e\	ex-	.	4cc\	ex-	.
=2	=2	=2	=2	=2	=2	=2	=2	=2	=2	=2	=2
2G\	-cel-	2G\	-cel-	2G/	-cel-	2e\	-cel-	.	2cc\	-cel-	.
4G\	-sis	4G\	-sis	4G/	-sis	4d\	-sis	.	4b\	-sis	.
8G\L	O-	8G\L	O-	8B/L	O-	8d\L	O-	.	8b\L	O-	.
8A\J	.	8A\J	.	8A/J	.	8e\J	.	.	8cc\J	.	.
=3	=3	=3	=3	=3	=3	=3	=3	=3	=3	=3	=3
4B\	-san-	4B\	-san-	4G/	-san-	4f\	-san-	.	4dd\	-san-	.
4G\	-na	4G\	-na	4B/	-na	4f\	-na	.	4dd\	-na	.
4A\	in	4A\	in	4A/	in	4f\	in	.	4dd\	in	.
4B\	ex-	4B\	ex-	4G/	ex-	4f\	ex-	.	4dd\	ex-	.
=4	=4	=4	=4	=4	=4	=4	=4	=4	=4	=4	=4
2c\	-cel-	2c\	-cel-	2G/	-cel-	2f\	-cel-	.	2dd\	-cel-	.
4C/	-sis	4C/	-sis	4G/	-sis	4e\	-sis	.	4cc\	-sis,	.
4C/	O-	4C/	O-	4G/	O-	4e\	O-	.	4cc\	o-	.
=5	=5	=5	=5	=5	=5	=5	=5	=5	=5	=5	=5
4C/	-san-	4C/	-san-	4G/	-san-	4g\	-san-	.	4ee\	-san-	.
8C/L	-na	8C/L	-na	8E/L	-na	4g\	-na	.	4ee\	-na	.
8D/J	.	8D/J	.	8F/J	.	.	.	.	.	.	.
!LO:LB:g=original	!	!	!	!	!	!	!	!	!	!	!
=-	=-	=-	=-	=-	=-	=-	=-	=-	=-	=-	=-
8E\L	in	8E\L	in	8G/L	in	4g\	in	.	4ee\	in	.
8D\J	.	8D\J	.	8F/J	.	.	.	.	.	.	.
8E\L	ex-	8E\L	ex-	8G/L	ex-	4e\	ex-	.	4cc\	ex-	.
8F\J	.	8F\J	.	8A/J	.	.	.	.	.	.	.
!	!	!LO:LB:g=original	!	!LO:LB:g=original	!	!LO:LB:g=original	!	!	!	!	!
=6	=6	=6	=6	=6	=6	=6	=6	=6	=6	=6	=6
4G\	-cel-	4G\	-cel-	4B\	-cel-	4d\	-cel-	.	4b\	-cel-	.
4G\	-sis	4G\	-sis	4B\	-sis	4d\	-sis	.	4b\	-sis	.
4r	.	4r	.	4r	.	4r	.	.	4r	.	.
4E\	O-	4E\	O-	4G/	O-	4e\	O-	.	4cc\	O-	.
!	!	!	!	!	!	!	!	!	!LO:LB:g=original	!	!
=7	=7	=7	=7	=7	=7	=7	=7	=7	=7	=7	=7
4E\	-san-	4E\	-san-	4G/	-san-	1e	-san-	.	1cc	-san-	.
4D\	.	4D\	.	4F/	.	.	.	.	.	.	.
4C\	.	4C\	.	4E/	.	.	.	.	.	.	.
4E\	.	4E\	.	4G/	.	.	.	.	.	.	.
=8	=8	=8	=8	=8	=8	=8	=8	=8	=8	=8	=8
2F\	-na	2F\	-na	2A/	-na	2f\	-na	.	2cc\	-na	.
4r	.	4r	.	4r	.	4r	.	.	4r	.	.
*	*	*	*	*	*ij	*	*	*	*	*	*
4F#X\	O-	4F#X\	O-	4A/	O-	4d\	O-	.	4dd\	O-	.
=9	=9	=9	=9	=9	=9	=9	=9	=9	=9	=9	=9
!LO:SIC:v:s=4F#\	!	!LO:SIC:v:s=4F#\	!	!	!	!	!	!	!	!	!
4F\	-san-	4F\	-san-	4A/	-san-	1f#X	-san-	.	1dd	-san-	.
4E\	.	4E\	.	4G/	.	.	.	.	.	.	.
4D\	.	4D\	.	4F#X/	.	.	.	.	.	.	.
4F\	.	4F\	.	4A/	.	.	.	.	.	.	.
=10	=10	=10	=10	=10	=10	=10	=10	=10	=10	=10	=10
2G\	-na	2G\	-na	2B\	-na	2g\	-na	.	2dd\	-na	.
*	*	*	*	*	*Xij	*	*	*	*	*	*
4r	.	4r	.	4r	.	4r	.	.	4r	.	.
4G\	O-	4G\	O-	4B\	O-	4g\	O-	.	4dd\	O-	.
=11	=11	=11	=11	=11	=11	=11	=11	=11	=11	=11	=11
4G\	-san-	4G\	-san-	4B\	-san-	1fn	-san-	.	1dd	-san-	.
4A\	.	4A\	.	4c\	.	.	.	.	.	.	.
4B\	.	4B\	.	4d\	.	.	.	.	.	.	.
4G\	.	4G\	.	4B\	.	.	.	.	.	.	.
=12	=12	=12	=12	=12	=12	=12	=12	=12	=12	=12	=12
4c\	.	4c\	.	2G/	.	2e\	.	.	2cc\	.	.
4G\	.	4G\	.	.	.	.	.	.	.	.	.
4E\	.	4E\	.	2G/	-na	2e\	-na	.	2cc\	-na	.
4C\	-na	4C\	-na	.	.	.	.	.	.	.	.
!	!	!LO:LB:g=original	!	!	!	!	!	!	!	!	!
=13	=13	=13	=13	=13	=13	=13	=13	=13	=13	=13	=13
4F\	in	4F\	in	4A/	in	4f\	in	.	4dd\	in	.
4D\	ex-	4D\	ex-	4A/	ex-	4f\	ex-	.	4dd\	ex-	.
!	!	!	!	!LO:LB:g=original	!	!	!	!	!	!	!
=-	=-	=-	=-	=-	=-	=-	=-	=-	=-	=-	=-
2G\	-cel-	2G\	-cel-	2G/	-cel-	4e\	-cel-	.	4cc\	-cel-	.
.	.	.	.	.	.	4d\	.	.	4b\	.	.
!LO:LB:g=original	!	!	!	!	!	!	!	!	!	!	!
=14	=14	=14	=14	=14	=14	=14	=14	=14	=14	=14	=14
2C/	-sis	2C/	-sis	2G/	-sis	2e\	-sis	.	2cc\	-sis	.
!	!	!	!	!	!	!	!	!LO:DY:a:t=p&colon;	!	!	!LO:DY:a
4r	.	4r	.	4r	.	4r	.	p	4r	.	p
4E\	O-	4E\	O-	4G/	O-	4e\	O-	.	4cc\	O-	.
!	!	!	!	!	!	!LO:LB:g=original	!	!	!	!	!
=15	=15	=15	=15	=15	=15	=15	=15	=15	=15	=15	=15
4E\	-san-	4E\	-san-	4G/	-san-	1e	-san-	.	1cc	-san-	.
4D\	.	4D\	.	4F/	.	.	.	.	.	.	.
4C\	.	4C\	.	4E/	.	.	.	.	.	.	.
4E\	.	4E\	.	4G/	.	.	.	.	.	.	.
=16	=16	=16	=16	=16	=16	=16	=16	=16	=16	=16	=16
2F\	-na	2F\	-na	2A/	-na	2f\	-na	.	2cc\	-na	.
4r	.	4r	.	4r	.	4r	.	.	4r	.	.
*	*	*	*	*	*ij	*	*	*	*	*	*
4F#X\	O-	4F#X\	O-	4A/	O-	4d\	O-	.	4dd\	O-	.
!	!	!	!	!	!	!	!	!	!LO:LB:g=original	!	!
=17	=17	=17	=17	=17	=17	=17	=17	=17	=17	=17	=17
!LO:SIC:v:s=4F#\	!	!LO:SIC:v:s=4F#\	!	!	!	!	!	!	!	!	!
4F\	-san-	4F\	-san-	4A/	-san-	1f#X	-san-	.	1dd	-san-	.
4E\	.	4E\	.	4G/	.	.	.	.	.	.	.
4D\	.	4D\	.	4F#X/	.	.	.	.	.	.	.
4F\	.	4F\	.	4A/	.	.	.	.	.	.	.
=18	=18	=18	=18	=18	=18	=18	=18	=18	=18	=18	=18
2G\	-na	2G\	-na	2B\	-na	2g\	-na	.	2dd\	-na	.
*	*	*	*	*	*Xij	*	*	*	*	*	*
4r	.	4r	.	4r	.	4r	.	.	4r	.	.
4G\	O-	4G\	O-	4B\	O-	4g\	O-	.	4dd\	O-	.
=19	=19	=19	=19	=19	=19	=19	=19	=19	=19	=19	=19
!	!	!	!	!	!	!	!	!	!	!	!LO:DY:a:t=for:rj
4G\	-san-	4G\	-san-	4B\	-san-	1fn	-san-	.	1dd	-san-	f
4A\	.	4A\	.	4c\	.	.	.	.	.	.	.
4B\	.	4B\	.	4d\	.	.	.	.	.	.	.
4G\	.	4G\	.	4B\	.	.	.	.	.	.	.
=20	=20	=20	=20	=20	=20	=20	=20	=20	=20	=20	=20
4c\	.	4c\	.	2G/	.	2e\	.	.	2cc\	.	.
4G\	.	4G\	.	.	.	.	.	.	.	.	.
4E\	.	4E\	.	2G/	-na	2e\	-na	.	2cc\	-na	.
4C/	-na	4C\	-na	.	.	.	.	.	.	.	.
=21	=21	=21	=21	=21	=21	=21	=21	=21	=21	=21	=21
4F\	in	4F\	in	4A/	in	4f\	in	.	4dd\	in	.
4D\	ex-	4D\	ex-	4A/	ex-	4f\	ex-	.	4dd\	ex-	.
2G\	-cel-	2G\	-cel-	2G/	-cel-	4e\	-cel-	.	4cc\	-cel-	.
.	.	.	.	.	.	4d\	.	.	4b\	.	.
=22	=22	=22	=22	=22	=22	=22	=22	=22	=22	=22	=22
1C	-sis	1C	-sis	1G	-sis	1e	-sis	.	1cc	-sis	.
==;;	==	==;;	==	==;;	==	==;;	==	==	==;;	==	==
*-	*-	*-	*-	*-	*-	*-	*-	*-	*-	*-	*-
!!!system-decoration: [(s1,s2,s3,s4)]s5
!!!ENC: Berenika Jozajtis
!!!END: 2024-02-23
!!!EED: Marta Chmielewska
!!!EEV: 2024-04-29
